Adwaita++-Dark/actions/16/go-jump-rtl.svg

<svg fill="none" height="16" viewBox="0 0 16 16" width="16" xmlns="http://www.w3.org/2000/svg">
  <g fill="#e6ddff">
    <path d="m9.5 2c1.9212 0 3.5 1.5788 3.5 3.5v.5h-2v-.5c0-.84027-.6597-1.5-1.5-1.5-.84027 0-1.5.65973-1.5 1.5v6.5h-2v-6.5c0-1.9212 1.5788-3.5 3.5-3.5z"/>
    <path d="m2.99997 9h1c.25689 0 .52846.12983.71875.3125l2.28119 2.2812 2.28122-2.2812c.19029-.18267.46186-.3125.71875-.3125h1.00002v1c0 .3095-.0903.5523-.2813.75l-3.71878 3.6562-3.71881-3.6562c-.19095-.1977-.28125-.4405-.28125-.75z"/>
  </g>
</svg>

<svg xmlns="http://www.w3.org/2000/svg" fill="none" width="16" height="16" viewBox="0 0 16 16">
 <path fill="#E6DDFF" d="M9.5 2C11.4212 2 13 3.5788 13 5.5V6H11V5.5C11 4.65973 10.3403 4 9.5 4C8.65973 4 8 4.65973 8 5.5V12H6V5.5C6 3.5788 7.5788 2 9.5 2Z"/>
 <path fill="#E6DDFF" d="M2.99997 9H3.99997C4.25686 9 4.52843 9.12983 4.71872 9.3125L6.99991 11.5937L9.28113 9.3125C9.47142 9.12983 9.74299 9 9.99988 9H10.9999V10C10.9999 10.3095 10.9096 10.5523 10.7186 10.75L6.99982 14.4062L3.28101 10.75C3.09006 10.5523 2.99976 10.3095 2.99976 10L2.99997 9Z"/>
</svg>
